icons/thunderstorm.svg

<svg width="22" height="24" viewBox="0 0 22 24" fill="none" xmlns="http://www.w3.org/2000/svg">
<path d="M8.46141 15.2308L5.07679 20.3077H8.46141L6.7691 23.6923L13.5383 18.6154H10.1537L13.5383 15.2308H8.46141Z" fill="black"/>
<path d="M16.9229 3.38463C16.8925 3.38463 16.8653 3.39313 16.8349 3.39313C15.6639 1.37425 13.5028 0 10.9998 0C7.84036 0 5.20877 2.17297 4.46271 5.10062C4.3847 5.0957 4.31029 5.07701 4.23077 5.07701C1.89364 5.07701 0 6.97065 0 9.30778C0 11.6449 1.89364 13.5385 4.23077 13.5385H16.9231C19.7273 13.5385 22 11.2658 22 8.46162C22 5.65742 19.7273 3.3847 16.9231 3.3847L16.9229 3.38463Z" fill="black"/>
</svg>

<?xml version="1.0" encoding="utf-8"?>
<!-- Generator: Adobe Illustrator 25.4.1, SVG Export Plug-In . SVG Version: 6.00 Build 0)  -->
<svg version="1.1" id="Слой_1" xmlns="http://www.w3.org/2000/svg" xmlns:xlink="http://www.w3.org/1999/xlink" x="0px" y="0px"
	 viewBox="0 0 22 24" style="enable-background:new 0 0 22 24;" xml:space="preserve">
<style type="text/css">
	.st0{fill:#728DBC;}
</style>
<path class="st0" d="M8.5,15.2l-3.4,5.1h3.4l-1.7,3.4l6.8-5.1h-3.4l3.4-3.4H8.5z"/>
<path class="st0" d="M16.9,3.4C16.9,3.4,16.9,3.4,16.9,3.4C15.7,1.4,13.5,0,11,0C7.8,0,5.2,2.2,4.5,5.1c-0.1,0-0.2,0-0.2,0
	C1.9,5.1,0,7,0,9.3c0,2.3,1.9,4.2,4.2,4.2h12.7c2.8,0,5.1-2.3,5.1-5.1C22,5.7,19.7,3.4,16.9,3.4L16.9,3.4z"/>
</svg>
